X:1
T:Nirvana
M:4/4
L:1/8
Q:1/4=120
K:Dm
D2 F2 G2 A2 | A4 z4 | A2 G2 F2 D2 | F4 z4 |
D2 D2 F2 G2 | A2 c2 d2 c2 | A2 G2 F2 E2 | D4 z4 |
d2 d2 c2 A2 | G2 F2 D2 z2 | F2 G2 A2 G2 | F4 D2 z2 |
D2 F2 A2 d2 | c4 A2 G2 | F2 D2 E2 F2 | D6 z2 |
